X:12
T:No.94 The Spirits of Wine
C:reel
L:1/8
M:4/4
K:A
ed||cBAc BGED|CEAc e2fg|aece a2ec|
dcBA GBed|cBAc BGED|CEAc e2fg|
aece a2ec|[1AAAF A2ed:|[2AAAF Aaga||
eccB ceag|fddc dfaf|eccB ceaf|
edcA BEGB|eccB ceag|fddc dfaf|
eAce dBGB|[1Aaec Aaga:|[2Aaec A2ed||
